packages/ffe-icons/icons/filled/md/tv_signin.svg

<svg xmlns="http://www.w3.org/2000/svg" height="24" viewBox="0 -960 960 960" width="24"><path d="M333.847-373.847h292.306v-14.307q0-40-39.577-62.846Q547-473.846 480-473.846T373.424-451q-39.577 22.846-39.577 62.846v14.307ZM480-526.154q29.154 0 49.576-20.423 20.423-20.423 20.423-49.577 0-29.153-20.423-49.576-20.422-20.423-49.576-20.423t-49.576 20.423q-20.423 20.423-20.423 49.576 0 29.154 20.423 49.577 20.422 20.423 49.576 20.423ZM172.309-220.001q-30.308 0-51.308-21t-21-51.308v-455.382q0-30.308 21-51.308t51.308-21h615.382q30.308 0 51.308 21t21 51.308v455.382q0 30.308-21 51.308t-51.308 21H619.999v43.846q0 15.461-10.347 25.807-10.346 10.347-25.807 10.347h-207.69q-15.461 0-25.807-10.347-10.347-10.346-10.347-25.807v-43.846H172.309Z"/></svg>

<svg xmlns="http://www.w3.org/2000/svg" height="24" viewBox="0 -960 960 960" width="24"><path d="M333.85-373.85h292.3v-14.3q0-40-39.57-62.85Q547-473.85 480-473.85T373.42-451q-39.57 22.85-39.57 62.85v14.3ZM480-526.15q29.15 0 49.58-20.43Q550-567 550-596.15q0-29.16-20.42-49.58-20.43-20.42-49.58-20.42t-49.58 20.42Q410-625.31 410-596.15q0 29.15 20.42 49.57 20.43 20.43 49.58 20.43ZM172.31-220Q142-220 121-241q-21-21-21-51.31v-455.38Q100-778 121-799q21-21 51.31-21h615.38Q818-820 839-799q21 21 21 51.31v455.38Q860-262 839-241q-21 21-51.31 21H620v43.84q0 15.47-10.35 25.81Q599.31-140 583.84-140H376.16q-15.47 0-25.81-10.35Q340-160.69 340-176.16V-220H172.31Z"/></svg>
